!!!SOCIAL_FUNCTION:	memorial ceremony songs
!!!PDT:	1932
!!!OTL: No_23_Memorial_Ceremony_Song_(d).krn
!!!REG: Southwest
!!!LANG: Non-Tone
!!!LING_GROUP: Yuman-Cochimi
**kern
*staff1
=1-
*clefF4
*k[b-e-a-]
*M2/4
4r
8r
8B-\
=2
8G\L
8G\J
4G\
=3
8G\L
8G\J
4G\
=4
4G\
8G\L
8B-\J
=5
8G\L
8G\J
8G\
8r
=6
8G\L
8G\J
8G\
8r
=7
8G\L
8G\J
8G\
8r
=8
4r
8r
8E-\
=9
8G\L
8G\J
4G\
=10
4G\
8G\
8r
=11
4G\
8G\
8r
=12
2r
=13!|:
4B-\
8G\L
8G\J
=14
4c\
4c\
=15
8G\L
8G\J
8G\
8r
=16
8G\L
8G\J
4G\
=17
4G\
8G\L
8B-\J
=18
8G\L
8G\J
8G\
8r
=19
4r
8r
8B-\
=20
8G\L
8G\J
8G\
8r
=21
8G\L
8G\J
8G\
8r
=22
4G\
8G\L
8B-\J
=23
8G\L
8G\J
8G\
8r
=24
8G\L
8G\J
8G\
8r
=25
8G\L
8G\J
8G\
8r
=26
4r
8r
8E-\
=27
8G\L
8G\J
4G\
=28
8G\L
8G\J
8G\
8r
=29
8G\L
8G\J
8G\
8r
=30
4r
8r
8B-\
=31
8G\L
8G\J
8G\
8r
=32
4G\
8G\
8r
=33
4r
8r
8B-\
=34
8G\L
8G\J
4G\
=35
8G\L
8G\J
4G\
=36
4G\
8G\L
8B-\J
=37
4G\
8G\
8r
=38
8G\L
8G\J
8G\
8r
=39
8G\L
8G\J
8G\
8r
=40
4r
8r
8E-\
=41
4G\
4G\
=42
8G\L
8G\J
8G\
8r
=43
8G\L
8G\J
8G\
8r
==:|!
*-
